app/dist/common/images/adapthealth.svg

<svg height="18" viewBox="0 0 18 18" width="18" xmlns="http://www.w3.org/2000/svg"><path d="m0 0h18v18h-18z" fill="#0e3359"/><path d="m8 7h-2v2h-2v2h2v2h2v-2h2v-2h-2z" fill="#50c4c3"/><path d="m12.58 5h-1.42v1.42h-1.41v1.42h1.41v1.41h1.42v-1.41h1.42v-1.42h-1.42z" fill="#bbc330"/></svg>

<!-- by TradingView --><svg xmlns="http://www.w3.org/2000/svg" width="18" height="18" viewBox="0 0 18 18"><path fill="#0E3359" d="M0 0h18v18H0z"/><path d="M8 7H6v2H4v2h2v2h2v-2h2V9H8V7Z" fill="#50C4C3"/><path d="M12.58 5h-1.42v1.42H9.75v1.42h1.41v1.41h1.42V7.84H14V6.42h-1.42V5Z" fill="#BBC330"/></svg>
